dist/img/svg/medal-icon.svg

<svg width="60" height="60" viewBox="0 0 60 60" fill="none" xmlns="http://www.w3.org/2000/svg">
<g clip-path="url(#clip0)">
<path d="M12.5391 22.2657C12.5391 31.9584 20.4245 39.8438 30.1172 39.8438C39.8099 39.8438 47.6954 31.9584 47.6954 22.2657C47.6954 12.5729 39.8099 4.6875 30.1172 4.6875C20.4245 4.6875 12.5391 12.5729 12.5391 22.2657ZM30.1172 7.03125C38.5176 7.03125 45.3516 13.8652 45.3516 22.2657C45.3516 30.6661 38.5176 37.5 30.1172 37.5C21.7168 37.5 14.8828 30.6661 14.8828 22.2657C14.8828 13.8652 21.7168 7.03125 30.1172 7.03125Z" fill="#2F3235"/>
<path d="M19.2645 20.1765L23.8069 24.6521L22.7618 30.9422C22.689 31.3803 22.8699 31.8216 23.2292 32.0825C23.5881 32.3435 24.0637 32.3787 24.4579 32.1745L30.1172 29.2357L35.7761 32.1745C36.167 32.3773 36.6426 32.3457 37.0047 32.0825C37.3641 31.8216 37.5449 31.3803 37.4721 30.9422L36.427 24.6521L40.9694 20.1765C41.2857 19.8653 41.3988 19.402 41.2615 18.9795C41.1241 18.5574 40.7602 18.2493 40.3212 18.183L34.0173 17.234L31.165 11.5298C30.9668 11.1329 30.5608 10.8821 30.1172 10.8821C29.6732 10.8821 29.2676 11.1329 29.0689 11.5298L26.2166 17.234L19.9127 18.183C19.4737 18.2489 19.1098 18.5574 18.9725 18.9795C18.8351 19.402 18.9487 19.8653 19.2645 20.1765ZM27.1674 19.461C27.5446 19.4043 27.8705 19.1676 28.0412 18.8266L30.1172 14.6742L32.1932 18.8266C32.3639 19.1676 32.6898 19.4043 33.067 19.461L37.6552 20.1518L34.3488 23.4088C34.0773 23.6766 33.9528 24.0597 34.0151 24.436L34.7759 29.0141L30.6569 26.8755C30.488 26.7876 30.3026 26.7436 30.1172 26.7436C29.9318 26.7436 29.7464 26.7876 29.577 26.8755L25.4581 29.0141L26.2189 24.436C26.2816 24.0597 26.1571 23.6766 25.8852 23.4088L22.5792 20.1518L27.1674 19.461Z" fill="#2F3235"/>
<path d="M31.2891 1.17188C31.2891 1.81916 30.7645 2.34375 30.1172 2.34375C29.4699 2.34375 28.9453 1.81916 28.9453 1.17188C28.9453 0.524598 29.4699 0 30.1172 0C30.7645 0 31.2891 0.524598 31.2891 1.17188Z" fill="#2F3235"/>
<path d="M24.5943 0.690801C14.7363 3.20713 7.85156 12.0791 7.85156 22.2657C7.85156 28.5925 10.5116 34.5539 15.1813 38.7759L8.12119 51.2184C7.89413 51.6189 7.92252 52.1151 8.19351 52.4868C8.46451 52.859 8.92777 53.038 9.37866 52.9441L17.3964 51.2793L20.2144 59.2201C20.3673 59.6522 20.7587 59.9548 21.2155 59.9955C21.6724 60.0363 22.1105 59.806 22.3371 59.4073L30.1172 45.7293L37.8969 59.4073C38.1066 59.7758 38.4966 59.9997 38.915 59.9997C38.9493 59.9997 38.9841 59.9983 39.0184 59.9955C39.4753 59.9548 39.8667 59.6518 40.02 59.2201L42.8376 51.2793L50.8553 52.9441C51.3058 53.0375 51.7695 52.8585 52.0405 52.4868C52.3119 52.1151 52.3399 51.6189 52.1128 51.2184L45.0527 38.7759C49.7224 34.5539 52.3824 28.5925 52.3824 22.2657C52.3824 12.0791 45.4976 3.20713 35.6401 0.690801C35.0126 0.530584 34.3749 0.909155 34.2147 1.53629C34.0545 2.16343 34.433 2.80155 35.0602 2.96177C43.8794 5.21306 50.0391 13.1511 50.0391 22.2657C50.0391 33.3587 41.0299 42.1876 30.1172 42.1876C19.1968 42.1876 10.1953 33.3514 10.1953 22.2657C10.1953 13.1511 16.3545 5.21306 25.1738 2.96177C25.801 2.80155 26.1795 2.16343 26.0198 1.53629C25.8596 0.909155 25.2219 0.530584 24.5943 0.690801ZM21.5666 56.0221L19.2636 49.5324C19.0677 48.9804 18.4946 48.6576 17.921 48.7767L11.4377 50.1229L17.0252 40.2755C20.2831 42.644 24.1406 44.0869 28.152 44.4439L21.5666 56.0221ZM42.313 48.7767C41.7399 48.6576 41.1663 48.9804 40.9704 49.5324L38.6678 56.0221L32.0819 44.4439C36.0938 44.0869 39.9509 42.644 43.2093 40.2755L48.7968 50.1229L42.313 48.7767Z" fill="#2F3235"/>
</g>
<defs>
<clipPath id="clip0">
<rect width="60" height="60" fill="white"/>
</clipPath>
</defs>
</svg>

<svg width="60" height="60" viewBox="0 0 60 60" fill="none" xmlns="http://www.w3.org/2000/svg"><g clip-path="url(#clip0)" fill="#2F3235"><path d="M12.54 22.266c0 9.692 7.884 17.578 17.577 17.578 9.693 0 17.578-7.886 17.578-17.578 0-9.693-7.885-17.578-17.578-17.578S12.54 12.572 12.54 22.265zM30.116 7.03c8.4 0 15.235 6.834 15.235 15.235 0 8.4-6.834 15.234-15.235 15.234-8.4 0-15.234-6.834-15.234-15.234S21.717 7.03 30.117 7.03z"/><path d="M19.265 20.177l4.542 4.475-1.045 6.29a1.172 1.172 0 001.696 1.233l5.66-2.94 5.658 2.94a1.171 1.171 0 001.696-1.233l-1.045-6.29 4.542-4.476a1.171 1.171 0 00-.648-1.993l-6.304-.949-2.852-5.704a1.171 1.171 0 00-2.096 0l-2.852 5.704-6.304.949a1.172 1.172 0 00-.648 1.994zm7.902-.716c.378-.057.703-.293.874-.634l2.076-4.153 2.076 4.153c.17.34.497.577.874.634l4.588.69-3.306 3.258c-.272.268-.396.65-.334 1.027l.76 4.578-4.118-2.139a1.169 1.169 0 00-1.08 0l-4.119 2.14.76-4.579a1.171 1.171 0 00-.333-1.027l-3.306-3.257 4.588-.691zM31.29 1.172a1.172 1.172 0 11-2.344 0 1.172 1.172 0 012.343 0z"/><path d="M24.594.69C14.736 3.208 7.852 12.08 7.852 22.267c0 6.327 2.66 12.288 7.33 16.51l-7.06 12.442a1.172 1.172 0 001.257 1.726l8.017-1.665 2.818 7.941a1.172 1.172 0 002.123.187l7.78-13.678 7.78 13.678a1.172 1.172 0 002.123-.187l2.818-7.94 8.017 1.664a1.173 1.173 0 001.258-1.726l-7.06-12.442a22.196 22.196 0 007.33-16.51c0-10.187-6.885-19.059-16.743-21.575a1.172 1.172 0 10-.58 2.27c8.82 2.252 14.98 10.19 14.98 19.305 0 11.093-9.01 19.922-19.923 19.922-10.92 0-19.922-8.837-19.922-19.922 0-9.115 6.16-17.053 14.979-19.304a1.173 1.173 0 00-.58-2.271zm-3.027 55.332l-2.303-6.49a1.172 1.172 0 00-1.343-.755l-6.483 1.346 5.587-9.847a22.312 22.312 0 0011.127 4.168l-6.585 11.578zm20.746-7.245a1.172 1.172 0 00-1.343.755l-2.302 6.49-6.586-11.578a22.314 22.314 0 0011.127-4.169l5.588 9.848-6.484-1.346z"/></g><defs><clipPath id="clip0"><path fill="#fff" d="M0 0h60v60H0z"/></clipPath></defs></svg>
